icons-common/skat-logo-full.svg

<svg height="1em" width="auto" viewBox="0 0 468 200" fill="currentColor" xmlns="http://www.w3.org/2000/svg">
    <path d="M338.053 197.678C296.102 187.587 267.95 148.186 272.001 105.244L300.672 112.054C297.092 155.726 329.083 194.268 372.715 198.798C361.204 200.738 349.394 200.348 338.053 197.638M250.32 114.514L299.042 61.4024C305.252 84.7233 311.412 107.964 317.582 131.115L351.124 139.395C351.124 139.395 329.653 58.3423 316.762 9.8804C315.852 6.39026 314.952 3.11013 314.132 0.0100098L216.698 106.244L250.33 114.524M467.738 58.5023V82.9932L428.247 83.3033L427.947 157.806H397.626L397.226 83.3033L357.734 82.9932V58.5023H467.738ZM152.636 58.5023L153.176 104.614L193.858 58.5023H231.039L188.457 106.174L233.969 157.816H195.578L153.386 108.454L152.626 157.816H122.555V58.4823H152.626L152.636 58.5023ZM51.902 56.9522C66.9226 56.9522 91.3536 61.5924 100.124 66.1026L101.734 66.9226L101.334 89.7135C101.114 89.7135 98.3839 88.6735 95.2737 87.3934C83.0332 82.3732 68.6727 79.8031 52.8521 79.7731C44.8618 79.7731 42.1116 79.9831 38.9115 80.8632C32.8313 82.5432 30.2612 85.6934 32.1113 89.1535C33.6413 92.0036 41.3216 93.9537 60.7624 96.4138C84.3033 99.3939 96.0738 103.174 103.464 110.114C111.894 118.035 112.524 132.885 104.874 142.976C98.7239 151.086 85.9234 157.036 71.0028 158.726C64.8725 159.416 50.492 159.396 42.9117 158.676C31.1412 157.566 10.6004 153.356 2.5401 150.416L0.200012 149.566V123.645C7.25029 126.845 15.1106 130.285 22.7209 132.385C42.9617 137.845 67.2926 138.655 75.323 134.145C78.3631 132.425 79.4131 130.085 78.0531 127.995C76.153 125.085 70.1827 123.605 47.5919 120.395C31.8612 118.165 23.5709 115.905 14.9606 111.504C5.90023 106.884 0.950041 100.024 0.120009 90.9636C-1.24004 76.023 8.67034 64.8825 27.7911 59.8724C33.1813 58.4623 45.7018 56.9322 51.882 56.9322L51.902 56.9522Z"
          />
</svg>

<svg xmlns="http://www.w3.org/2000/svg" width="auto" height="1em" fill="currentColor" viewBox="0 0 468 200">
    <path d="M338.053 197.678c-41.951-10.091-70.103-49.492-66.052-92.434l28.671 6.81c-3.58 43.672 28.411 82.214 72.043 86.744a87 87 0 0 1-34.662-1.16m-87.733-83.124 48.722-53.112c6.21 23.321 12.37 46.562 18.54 69.713l33.542 8.28S329.653 58.342 316.762 9.88c-.91-3.49-1.81-6.77-2.63-9.87l-97.434 106.234 33.632 8.28m217.408-56.022v24.491l-39.491.31-.3 74.503h-30.321l-.4-74.503-39.492-.31v-24.49zm-315.102 0 .54 46.112 40.682-46.112h37.181l-42.582 47.672 45.512 51.642h-38.391l-42.192-49.362-.76 49.362h-30.071V58.482h30.071zm-100.734-1.55c15.02 0 39.452 4.64 48.222 9.15l1.61.82-.4 22.792c-.22 0-2.95-1.04-6.06-2.32-12.24-5.02-26.601-7.59-42.422-7.62-7.99 0-10.74.21-13.94 1.09-6.08 1.68-8.65 4.83-6.8 8.29 1.53 2.85 9.21 4.8 28.65 7.26 23.541 2.98 35.312 6.76 42.702 13.7 8.43 7.921 9.06 22.771 1.41 32.862-6.15 8.11-18.95 14.06-33.871 15.75-6.13.69-20.511.67-28.091-.05-11.77-1.11-32.312-5.32-40.372-8.26l-2.34-.85v-25.921c7.05 3.2 14.91 6.64 22.52 8.74 20.242 5.46 44.573 6.27 52.603 1.76 3.04-1.72 4.09-4.06 2.73-6.15-1.9-2.91-7.87-4.39-30.461-7.6-15.73-2.23-24.021-4.49-32.631-8.891C5.9 106.884.95 100.024.12 90.964c-1.36-14.941 8.55-26.082 27.671-31.092 5.39-1.41 17.91-2.94 24.091-2.94z"/>
</svg>
